icons/14x14_arrow_left_outline.svg

<svg xmlns="http://www.w3.org/2000/svg" width="14" height="14" viewBox="0 0 14 14">
  <path fill-rule="evenodd" d="M4.57536775,5.9551845 L5.73309467,4.78361162 C6.13629834,4.37558579 6.13629834,3.71404521 5.73309467,3.30601937 C5.32989099,2.89799354 4.67616867,2.89799354 4.27296499,3.30601937 L0.622640802,7 L4.27296499,10.6939806 C4.67616867,11.1020065 5.32989099,11.1020065 5.73309467,10.6939806 C6.13629834,10.2859548 6.13629834,9.62441421 5.73309467,9.21638838 L4.57536775,8.0448155 L11.5901732,8.0448155 C12.1603893,8.0448155 12.6226408,7.57703567 12.6226408,7 C12.6226408,6.42296433 12.1603893,5.9551845 11.5901732,5.9551845 L4.57536775,5.9551845 Z"/>
</svg>

<svg width="14" height="14" fill="none" xmlns="http://www.w3.org/2000/svg"><path fill-rule="evenodd" clip-rule="evenodd" d="m4.575 5.955 1.158-1.171a1.054 1.054 0 0 0 0-1.478 1.024 1.024 0 0 0-1.46 0L.623 7l3.65 3.694a1.024 1.024 0 0 0 1.46 0 1.054 1.054 0 0 0 0-1.478L4.575 8.045h7.015c.57 0 1.033-.468 1.033-1.045s-.463-1.045-1.033-1.045H4.575Z" fill="#000"/></svg>
